X:1
T:Verdant Braes of Skreen
M:3/4
L:1/2
K:F
 C/2| F A/2| GA/4-G/4| F- E/2| C A/4B/4| c c/2|G/4-F/4G/4-A/4
M:3/4
| B(3G3.99999962500005/23.9999970000004G3.99999962500005/23.9999970000004A3.99999962500005/23.9999970000004G3.99999962500005/23.9999970000004A3.99999962500005/23.9999970000004B3.99999962500005/23.9999970000004|\
 c c/2| F A/4G/4| F E/2| C C/2| F A/2| G A/4G/4| F E/2| CA/4-B/4| c(2G3.99999962500005/23.9999970000004G3.99999962500005/23.9999970000004A3.99999962500005/23.9999970000004 B3.99999962500005/23.9999970000004|\
 A(3B3.99999962500005/23.9999970000004B3.99999962500005/23.9999970000004A3.99999962500005/23.9999970000004B3.99999962500005/23.9999970000004A3.99999962500005/23.9999970000004G3.99999962500005/23.9999970000004|\
 F||
